X: 1
T: Sauna-Matin polkka
O: Finland
R: polka
Z: 2009 John Chambers <jc:trillian.mit.edu>
S: printed MS of unknown origin, labelled "Kannonkoskelta. Soittanut Pekka Kinnunen."
M: 2/4
L: 1/16
K: G
|: "G"GABc d2g2 | bagf g2B2 \
|1,3 "D7"d2cB c2a2 | agfe dcBA \
:|2,4 "D7"d2cB cBAF | "(G)"A2G2 "G"G2z2 :|[K:D]
K: D
|: "G"b2g2 gfgb | "D"a2f2 fefa \
|1,3 "A7"g2e2 eceg | "D"f2d2 defg \
:|2,4 "A7"g2e2 ecef | "(D)"e2d2 "D"d2z2 :|[K:G=c]
K: G
|: "G"g2b2 bag2 | "C"c'6 c'2 \
|1,3 "D7"f2a2 a2f2 | "(G)"abaf "G"g2d2 \
:|2,4 "D7"f2a2 a2f2 | "(G)"abaf "G"g2z2 :|
